X:3357
T:Constant Billy
M:6/8
L:1/8
Q:110
R:Double Step
K:G
D | G2B   BAB | c2A  FGA | BAG E2E | DEF G2 :|
|: Bcd e2c | ABc d3 | Bcd e2c | ABc def | g2d BAB | c2A FGA | BAG E2 E |
 DEF | G 


